svg/logo/linear_line.svg

<?xml version="1.0" encoding="UTF-8"?>
<svg width="24px" height="24px" viewBox="0 0 24 24" version="1.1" xmlns="http://www.w3.org/2000/svg" xmlns:xlink="http://www.w3.org/1999/xlink">
    <title>linear_line</title>
    <g id="Icon" stroke="none" stroke-width="1" fill="none" fill-rule="evenodd">
        <g id="Logo" transform="translate(-816.000000, -192.000000)">
            <g id="linear_line" transform="translate(816.000000, 192.000000)">
                <path d="M24,0 L24,24 L0,24 L0,0 L24,0 Z M12.5935,23.2578 L12.5819,23.2595 L12.5109,23.295 L12.4919,23.2987 L12.4767,23.295 L12.4057,23.2595 C12.3958,23.2564 12.387,23.259 12.3821,23.2649 L12.378,23.2758 L12.3609,23.7031 L12.3659,23.7235 L12.3769,23.7357 L12.4805,23.8097 L12.4953,23.8136 L12.5071,23.8097 L12.6107,23.7357 L12.6233,23.7197 L12.6267,23.7031 L12.6096,23.2758 C12.6076,23.2657 12.601,23.2593 12.5935,23.2578 Z M12.8584,23.1453 L12.8445,23.1473 L12.6598,23.2397 L12.6499,23.2499 L12.6472,23.2611 L12.6651,23.6906 L12.6699,23.7034 L12.6784,23.7105 L12.8793,23.8032 C12.8914,23.8069 12.9022,23.803 12.9078,23.7952 L12.9118,23.7812 L12.8777,23.1665 C12.8753,23.1546 12.8674,23.147 12.8584,23.1453 Z M12.143,23.1473 C12.1332,23.1424 12.1222,23.1453 12.1156,23.1526 L12.1099,23.1665 L12.0758,23.7812 C12.0751,23.7927 12.0828,23.8019 12.0926,23.8046 L12.1083,23.8032 L12.3092,23.7105 L12.3186,23.7024 L12.3225,23.6906 L12.3404,23.2611 L12.3372,23.2485 L12.3278,23.2397 L12.143,23.1473 Z" id="MingCute" fill-rule="nonzero"></path>
                <path d="M17.6567,6.34315 C14.5325,3.21895 9.46715,3.21895 6.34296,6.34315 C5.95243,6.73367 5.31927,6.73367 4.92874,6.34315 C4.53822,5.95262 4.53822,5.31946 4.92874,4.92893 C8.83399,1.02369 15.1656,1.02369 19.0709,4.92893 C22.9761,8.83418 22.9761,15.1658 19.0709,19.0711 C18.6804,19.4616 18.0472,19.4616 17.6567,19.0711 C17.2661,18.6805 17.2661,18.0474 17.6567,17.6569 C20.7809,14.5327 20.7809,9.46734 17.6567,6.34315 Z M3.16954,7.41237 C3.56007,7.02185 4.19323,7.02185 4.58376,7.41237 L16.5874,19.4161 C16.978,19.8066 16.978,20.4397 16.5874,20.8303 C16.1969,21.2208 15.5637,21.2208 15.1732,20.8303 L3.16954,8.82659 C2.77902,8.43606 2.77902,7.8029 3.16954,7.41237 Z M2.30657,10.792 C2.69709,10.4015 3.33025,10.4015 3.72078,10.792 L13.2078,20.279 C13.5983,20.6696 13.5983,21.3027 13.2078,21.6932 C12.8173,22.0838 12.1841,22.0838 11.7936,21.6932 L2.30657,12.2062 C1.91604,11.8157 1.91604,11.1826 2.30657,10.792 Z M2.80742,15.5355 C3.19795,15.145 3.83111,15.145 4.22164,15.5355 L8.46428,19.7782 C8.8548,20.1687 8.8548,20.8019 8.46428,21.1924 C8.07375,21.5829 7.44059,21.5829 7.05006,21.1924 L2.80742,16.9497 C2.4169,16.5592 2.4169,15.9261 2.80742,15.5355 Z" id="形状" fill="#09244B"></path>
            </g>
        </g>
    </g>
</svg>

<svg xmlns="http://www.w3.org/2000/svg" width="24" height="24"><g fill="none" fill-rule="evenodd"><path d="M24 0v24H0V0h24ZM12.594 23.258l-.012.002-.071.035-.02.004-.014-.004-.071-.036c-.01-.003-.019 0-.024.006l-.004.01-.017.428.005.02.01.013.104.074.015.004.012-.004.104-.074.012-.016.004-.017-.017-.427c-.002-.01-.009-.017-.016-.018Zm.264-.113-.014.002-.184.093-.01.01-.003.011.018.43.005.012.008.008.201.092c.012.004.023 0 .029-.008l.004-.014-.034-.614c-.003-.012-.01-.02-.02-.022Zm-.715.002a.023.023 0 0 0-.027.006l-.006.014-.034.614c0 .012.007.02.017.024l.015-.002.201-.093.01-.008.003-.011.018-.43-.003-.012-.01-.01-.184-.092Z"/><path fill="#09244B" d="M17.657 6.343a8 8 0 0 0-11.314 0A1 1 0 0 1 4.929 4.93c3.905-3.905 10.237-3.905 14.142 0 3.905 3.905 3.905 10.237 0 14.142a1 1 0 0 1-1.414-1.414 8 8 0 0 0 0-11.314ZM3.17 7.413a1 1 0 0 1 1.414 0l12.003 12.003a1 1 0 1 1-1.414 1.414L3.17 8.827a1 1 0 0 1 0-1.415Zm-.863 3.379a1 1 0 0 1 1.414 0l9.487 9.487a1 1 0 0 1-1.414 1.414l-9.487-9.487a1 1 0 0 1 0-1.414Zm.5 4.744a1 1 0 0 1 1.415 0l4.242 4.242a1 1 0 1 1-1.414 1.414L2.807 16.95a1 1 0 0 1 0-1.414Z"/></g></svg>
